src/assets/images/c3n7_erp-logo/vector/default-monochrome-white.svg

<?xml version="1.0" encoding="UTF-8" standalone="no"?>
<svg
   data-v-423bf9ae=""
   viewBox="0 0 289.10989 78.623978"
   class="iconLeft"
   version="1.1"
   id="svg16"
   sodipodi:docname="default-monochrome-white.svg"
   inkscape:version="1.1 (c4e8f9ed74, 2021-05-24)"
   width="289.10989"
   height="78.623978"
   xmlns:inkscape="http://www.inkscape.org/namespaces/inkscape"
   xmlns:sodipodi="http://sodipodi.sourceforge.net/DTD/sodipodi-0.dtd"
   xmlns="http://www.w3.org/2000/svg"
   xmlns:svg="http://www.w3.org/2000/svg">
  <defs
     id="defs20" />
  <sodipodi:namedview
     id="namedview18"
     pagecolor="#ffffff"
     bordercolor="#666666"
     borderopacity="1.0"
     inkscape:pageshadow="2"
     inkscape:pageopacity="0.0"
     inkscape:pagecheckerboard="true"
     showgrid="false"
     inkscape:zoom="4.5433333"
     inkscape:cx="61.408657"
     inkscape:cy="59.427733"
     inkscape:window-width="1916"
     inkscape:window-height="1056"
     inkscape:window-x="0"
     inkscape:window-y="20"
     inkscape:window-maximized="1"
     inkscape:current-layer="svg16" />
  <!---->
  <!---->
  <!---->
  <g
     data-v-423bf9ae=""
     id="699c58f0-bf35-4890-80fb-272751c2626e"
     fill="#ffffff"
     transform="matrix(2.9761902,0,0,2.9761902,86.728962,12.645325)">
    <path
       d="m 4.48,13.92 v 0 0 q -1.36,0 -2.13,-0.98 v 0 0 Q 1.57,11.96 1.57,10.18 v 0 0 q 0,-1.77 0.8,-2.76 v 0 0 Q 3.16,6.43 4.59,6.43 v 0 0 q 0.84,0 1.46,0.39 v 0 0 q 0.61,0.39 0.92,1.1 v 0 L 6.08,8.27 v 0 Q 5.66,7.31 4.55,7.31 v 0 0 q -1.96,0 -1.96,2.87 v 0 0 q 0,2.85 1.93,2.85 v 0 0 q 0.6,0 1.04,-0.29 v 0 0 q 0.43,-0.29 0.63,-0.8 v 0 l 0.88,0.34 v 0 q -0.27,0.75 -0.96,1.2 v 0 0 q -0.69,0.44 -1.63,0.44 z m 8.41,0 v 0 0 q -1.24,0 -1.95,-0.61 v 0 0 Q 10.23,12.7 9.86,11.62 v 0 l 0.91,-0.38 v 0 q 0.32,0.91 0.83,1.34 v 0 0 q 0.51,0.43 1.29,0.43 v 0 0 q 0.91,0 1.5,-0.49 v 0 0 q 0.59,-0.49 0.59,-1.43 v 0 0 q 0,-0.93 -0.57,-1.46 v 0 0 Q 13.85,9.1 12.8,9.1 v 0 H 12.14 V 8.2 h 0.52 v 0 q 0.86,0 1.4,-0.48 v 0 0 q 0.53,-0.48 0.53,-1.29 v 0 0 q 0,-0.79 -0.49,-1.26 v 0 0 Q 13.61,4.69 12.92,4.69 v 0 0 q -1.33,0 -1.89,1.51 v 0 L 10.12,5.85 v 0 q 0.31,-0.87 1.02,-1.47 v 0 0 q 0.7,-0.6 1.74,-0.6 v 0 0 q 1.18,0 1.95,0.69 v 0 0 q 0.78,0.7 0.78,1.82 v 0 0 q 0,0.65 -0.34,1.24 v 0 0 q -0.33,0.59 -0.91,0.9 v 0 0 q 0.77,0.31 1.22,0.99 v 0 0 q 0.44,0.69 0.44,1.64 v 0 0 q 0,1.22 -0.93,2.04 v 0 0 q -0.92,0.82 -2.2,0.82 z M 21.7,6.43 v 0 0 q 1.37,0 2.01,0.79 v 0 0 q 0.64,0.8 0.64,2.57 v 0 3.96 h -0.98 v -4.37 0 q 0,-1.08 -0.48,-1.57 v 0 0 q -0.48,-0.5 -1.27,-0.5 v 0 0 q -1.85,0 -1.85,2.04 v 0 4.4 H 18.79 V 6.59 h 0.92 v 0.86 0 Q 20.38,6.43 21.7,6.43 Z M 27.38,4.79 V 3.95 h 5.59 v 0.64 0 q -2.98,3.57 -3.01,9.16 v 0 h -0.98 v 0 q 0.03,-2.54 0.65,-4.68 v 0 0 q 0.62,-2.15 2.22,-4.28 v 0 z M 39.3,19.04 H 38.32 V -1.12 H 39.3 Z M 50.5,9.88 v 0 0 q 0,0.38 -0.03,0.69 v 0 H 45.4 v 0 q 0.14,1.15 0.72,1.79 v 0 0 q 0.57,0.65 1.49,0.65 v 0 0 q 0.91,0 1.71,-0.56 v 0 l 0.53,0.65 v 0 q -1.03,0.82 -2.28,0.82 v 0 0 q -1.47,0 -2.34,-1.09 v 0 0 q -0.86,-1.08 -0.86,-2.67 v 0 0 q 0,-1.76 0.86,-2.75 v 0 0 Q 46.1,6.43 47.57,6.43 v 0 0 q 1.28,0 2.1,0.87 v 0 0 Q 50.5,8.18 50.5,9.88 Z M 45.37,9.69 v 0 h 4.13 v 0 Q 49.49,8.39 48.91,7.85 v 0 0 Q 48.33,7.31 47.57,7.31 v 0 0 q -1.03,0 -1.59,0.63 v 0 0 Q 45.43,8.57 45.37,9.69 Z M 57.76,6.43 v 0 0 q 1.03,0 1.52,0.32 v 0 2.39 h -1 v -1.66 0 Q 58.03,7.43 57.69,7.43 v 0 0 q -1.06,0 -1.89,0.54 v 0 0 q -0.84,0.54 -0.84,1.48 v 0 3.42 h 2.15 v 0.88 h -4.65 v -0.88 h 1.48 V 7.48 H 52.46 V 6.59 h 2.45 v 1.26 0 q 0.4,-0.64 1.23,-1.03 v 0 0 q 0.83,-0.39 1.62,-0.39 z m 5.13,9.67 -0.98,0.49 v -10 h 0.98 v 0.65 0 q 0.42,-0.39 0.87,-0.6 v 0 0 Q 64.2,6.43 64.89,6.43 v 0 0 q 1.44,0 2.28,1.01 v 0 0 Q 68,8.46 68,10.16 v 0 0 q 0,1.77 -0.85,2.76 v 0 0 q -0.85,1 -2.2,1 v 0 0 q -1.29,0 -2.06,-0.9 v 0 z m 1.94,-3.07 v 0 0 q 1.03,0 1.59,-0.74 v 0 0 q 0.56,-0.74 0.56,-2.13 v 0 0 q 0,-1.31 -0.58,-2.08 v 0 0 Q 65.81,7.31 64.78,7.31 v 0 0 q -1.28,0 -1.89,1.1 v 0 3.52 0 q 0.85,1.1 1.94,1.1 z"
       id="path2" />
  </g>
  <!---->
  <g
     data-v-423bf9ae=""
     id="e2d39384-52c5-4af3-a8e0-cf0e89de0b47"
     transform="matrix(0.80381931,0,0,0.80381931,-10.435986,-0.80381931)"
     stroke="none"
     fill="#ffffff"
     style="stroke-width:1.35206">
    <g
       clip-rule="evenodd"
       id="g13"
       style="stroke-width:1.82806">
      <path
         d="M 12.983,10.59 30.001,98.813 24.129,39.764 53.15,37.872 53.096,27.989 64.549,1 53.622,18.977 Z"
         id="path5"
         style="stroke-width:1.35206" />
      <path
         d="m 59.389,54.548 5.16,-53.541 -8.74,39.716 -19.612,1.045 1.57,20.462 -7.766,36.583 12.057,-39.899 z"
         id="path7"
         style="stroke-width:1.35206" />
      <path
         d="M 62.8,67.182 63.349,56.729 47.37,60.484 47.338,72.281 30.001,98.813 51.681,71.197 Z m 2.911,-4.788 14.841,-4.731 1.509,-12.532 -15.899,2.095 z M 72.07,44.502 83.058,43.085 84.639,32.807 76.56,32.434 64.549,1 l 8.43,30.967 z"
         id="path9"
         style="stroke-width:1.35206" />
      <path
         d="M 87.413,31.294 88.669,21.788 79.125,19.094 64.549,1 l 14.483,22.437 -0.422,7 z"
         id="path11"
         style="stroke-width:1.35206" />
    </g>
  </g>
  <!---->
</svg>

<svg data-v-423bf9ae="" xmlns="http://www.w3.org/2000/svg" viewBox="0 0 300 107" class="iconLeft"><!----><!----><!----><g data-v-423bf9ae="" id="699c58f0-bf35-4890-80fb-272751c2626e" fill="white" transform="matrix(2.97619021713781,0,0,2.97619021713781,97.58376939189195,26.485464972478397)"><path d="M4.48 13.92L4.48 13.92L4.48 13.92Q3.12 13.92 2.35 12.94L2.35 12.94L2.35 12.94Q1.57 11.96 1.57 10.18L1.57 10.18L1.57 10.18Q1.57 8.41 2.37 7.42L2.37 7.42L2.37 7.42Q3.16 6.43 4.59 6.43L4.59 6.43L4.59 6.43Q5.43 6.43 6.05 6.82L6.05 6.82L6.05 6.82Q6.66 7.21 6.97 7.92L6.97 7.92L6.08 8.27L6.08 8.27Q5.66 7.31 4.55 7.31L4.55 7.31L4.55 7.31Q2.59 7.31 2.59 10.18L2.59 10.18L2.59 10.18Q2.59 13.03 4.52 13.03L4.52 13.03L4.52 13.03Q5.12 13.03 5.56 12.74L5.56 12.74L5.56 12.74Q5.99 12.45 6.19 11.94L6.19 11.94L7.07 12.28L7.07 12.28Q6.80 13.03 6.11 13.48L6.11 13.48L6.11 13.48Q5.42 13.92 4.48 13.92ZM12.89 13.92L12.89 13.92L12.89 13.92Q11.65 13.92 10.94 13.31L10.94 13.31L10.94 13.31Q10.23 12.70 9.86 11.62L9.86 11.62L10.77 11.24L10.77 11.24Q11.09 12.15 11.60 12.58L11.60 12.58L11.60 12.58Q12.11 13.01 12.89 13.01L12.89 13.01L12.89 13.01Q13.80 13.01 14.39 12.52L14.39 12.52L14.39 12.52Q14.98 12.03 14.98 11.09L14.98 11.09L14.98 11.09Q14.98 10.16 14.41 9.63L14.41 9.63L14.41 9.63Q13.85 9.10 12.80 9.10L12.80 9.10L12.14 9.10L12.14 8.20L12.66 8.20L12.66 8.20Q13.52 8.20 14.06 7.72L14.06 7.72L14.06 7.72Q14.59 7.24 14.59 6.43L14.59 6.43L14.59 6.43Q14.59 5.64 14.10 5.17L14.10 5.17L14.10 5.17Q13.61 4.69 12.92 4.69L12.92 4.69L12.92 4.69Q11.59 4.69 11.03 6.20L11.03 6.20L10.12 5.85L10.12 5.85Q10.43 4.98 11.14 4.38L11.14 4.38L11.14 4.38Q11.84 3.78 12.88 3.78L12.88 3.78L12.88 3.78Q14.06 3.78 14.83 4.47L14.83 4.47L14.83 4.47Q15.61 5.17 15.61 6.29L15.61 6.29L15.61 6.29Q15.61 6.94 15.27 7.53L15.27 7.53L15.27 7.53Q14.94 8.12 14.36 8.43L14.36 8.43L14.36 8.43Q15.13 8.74 15.58 9.42L15.58 9.42L15.58 9.42Q16.02 10.11 16.02 11.06L16.02 11.06L16.02 11.06Q16.02 12.28 15.09 13.10L15.09 13.10L15.09 13.10Q14.17 13.92 12.89 13.92ZM21.70 6.43L21.70 6.43L21.70 6.43Q23.07 6.43 23.71 7.22L23.71 7.22L23.71 7.22Q24.35 8.02 24.35 9.79L24.35 9.79L24.35 13.75L23.37 13.75L23.37 9.38L23.37 9.38Q23.37 8.30 22.89 7.81L22.89 7.81L22.89 7.81Q22.41 7.31 21.62 7.31L21.62 7.31L21.62 7.31Q19.77 7.31 19.77 9.35L19.77 9.35L19.77 13.75L18.79 13.75L18.79 6.59L19.71 6.59L19.71 7.45L19.71 7.45Q20.38 6.43 21.70 6.43ZM27.38 4.79L27.38 3.95L32.97 3.95L32.97 4.59L32.97 4.59Q29.99 8.16 29.96 13.75L29.96 13.75L28.98 13.75L28.98 13.75Q29.01 11.21 29.63 9.07L29.63 9.07L29.63 9.07Q30.25 6.92 31.85 4.79L31.85 4.79L27.38 4.79ZM39.30 19.04L38.32 19.04L38.32-1.12L39.30-1.12L39.30 19.04ZM50.50 9.88L50.50 9.88L50.50 9.88Q50.50 10.26 50.47 10.57L50.47 10.57L45.40 10.57L45.40 10.57Q45.54 11.72 46.12 12.36L46.12 12.36L46.12 12.36Q46.69 13.01 47.61 13.01L47.61 13.01L47.61 13.01Q48.52 13.01 49.32 12.45L49.32 12.45L49.85 13.10L49.85 13.10Q48.82 13.92 47.57 13.92L47.57 13.92L47.57 13.92Q46.10 13.92 45.23 12.83L45.23 12.83L45.23 12.83Q44.37 11.75 44.37 10.16L44.37 10.16L44.37 10.16Q44.37 8.40 45.23 7.41L45.23 7.41L45.23 7.41Q46.10 6.43 47.57 6.43L47.57 6.43L47.57 6.43Q48.85 6.43 49.67 7.30L49.67 7.30L49.67 7.30Q50.50 8.18 50.50 9.88ZM45.37 9.69L45.37 9.69L49.50 9.69L49.50 9.69Q49.49 8.39 48.91 7.85L48.91 7.85L48.91 7.85Q48.33 7.31 47.57 7.31L47.57 7.31L47.57 7.31Q46.54 7.31 45.98 7.94L45.98 7.94L45.98 7.94Q45.43 8.57 45.37 9.69ZM57.76 6.43L57.76 6.43L57.76 6.43Q58.79 6.43 59.28 6.75L59.28 6.75L59.28 9.14L58.28 9.14L58.28 7.48L58.28 7.48Q58.03 7.43 57.69 7.43L57.69 7.43L57.69 7.43Q56.63 7.43 55.80 7.97L55.80 7.97L55.80 7.97Q54.96 8.51 54.96 9.45L54.96 9.45L54.96 12.87L57.11 12.87L57.11 13.75L52.46 13.75L52.46 12.87L53.94 12.87L53.94 7.48L52.46 7.48L52.46 6.59L54.91 6.59L54.91 7.85L54.91 7.85Q55.31 7.21 56.14 6.82L56.14 6.82L56.14 6.82Q56.97 6.43 57.76 6.43ZM62.89 16.10L61.91 16.59L61.91 6.59L62.89 6.59L62.89 7.24L62.89 7.24Q63.31 6.85 63.76 6.64L63.76 6.64L63.76 6.64Q64.20 6.43 64.89 6.43L64.89 6.43L64.89 6.43Q66.33 6.43 67.17 7.44L67.17 7.44L67.17 7.44Q68.00 8.46 68.00 10.16L68.00 10.16L68.00 10.16Q68.00 11.93 67.15 12.92L67.15 12.92L67.15 12.92Q66.30 13.92 64.95 13.92L64.95 13.92L64.95 13.92Q63.66 13.92 62.89 13.02L62.89 13.02L62.89 16.10ZM64.83 13.03L64.83 13.03L64.83 13.03Q65.86 13.03 66.42 12.29L66.42 12.29L66.42 12.29Q66.98 11.55 66.98 10.16L66.98 10.16L66.98 10.16Q66.98 8.85 66.40 8.08L66.40 8.08L66.40 8.08Q65.81 7.31 64.78 7.31L64.78 7.31L64.78 7.31Q63.50 7.31 62.89 8.41L62.89 8.41L62.89 11.93L62.89 11.93Q63.74 13.03 64.83 13.03Z"></path></g><!----><g data-v-423bf9ae="" id="e2d39384-52c5-4af3-a8e0-cf0e89de0b47" transform="matrix(1.0868111504448785,0,0,1.0868111504448785,-13.255261890115804,-0.23894260335429607)" stroke="none" fill="white"><g clip-rule="evenodd"><path d="M12.983 10.59l17.018 88.223-5.872-59.049 29.021-1.892-.054-9.883L64.549 1 53.622 18.977z"></path><path d="M59.389 54.548l5.16-53.541-8.74 39.716-19.612 1.045 1.57 20.462-7.766 36.583 12.057-39.899z"></path><path d="M62.8 67.182l.549-10.453-15.979 3.755-.032 11.797-17.337 26.532 21.68-27.616zM65.711 62.394l14.841-4.731 1.509-12.532-15.899 2.095zM72.07 44.502l10.988-1.417 1.581-10.278-8.079-.373L64.549 1l8.43 30.967z"></path><path d="M87.413 31.294l1.256-9.506-9.544-2.694L64.549 1l14.483 22.437-.422 7z"></path></g></g><!----></svg>
